X:1
T:Justorum animae - Byrd
T:James Gibb editions
T:#
%%score { 1 | 2 } 3 4 5
L:1/8
Q:1/4=80
M:2/2
K:Eb
V:1 treble nm="Soprano 1" snm="S"
V:2 treble 
V:3 treble nm="Alto" snm="A"
V:4 treble-8 nm="Tenor" snm="T"
V:5 bass nm="Bass" snm="B"
V:1
"^Justorum animae""^William Byrd\n(1543-1623)" G4 F4- | F4 G4 | A6 G2 | F4 F2 B2- | B2 G4 (B2- | %5
w: Ju- sto\-|* rum|a- ni-|mae in ma\-|* nu De\-|
 B2 =AG A2 A2) | B4 z2 B2 | c4 e3 _d |[M:2/2] c4 B2 B2 | e2 c4 B2 | A4 G2 G2 | c2 B2 B4 | %12
w: * * * * i|sunt, et|non tan- get|il- los, et|non tan- get|il- los tor-|men- tum mor-|
 =A2 c2 c2 c2 | =B4 c4 | z8 | z2 c4 F2 | c4 A4- | A2 G2 G4 | G3 A B4- | B4 z2 c2 | edcB A2 c2- | %21
w: tis, tor- men- tum|mor- tis:||vi- si|sunt o\-|* cu- lis,|o- cu- lis|* in-|si- pi- en- ti- um mo\-|
 c2 B2 A4 | G4 z4 | A6 G2 | F8 | F4 B3 =A | B2 G2 B2 d2- | d2 c2 d4 | e4 c4 | z4 z2 B2- | %30
w: |ri,|mo\- *||ri: il- li|au- tem sunt, il\-|* li au-|tem sunt,|il\-|
 B2 =A2 B2 c2 | B4 z2 c2 | (ed cB/A/) G2 z2 | B2 (ed cBAc) | B2 c2 (B2 EF) | %35
w: * li au- tem|sunt in|pa\- * * * * ce,|in pa\- * * * * *|ce, in pa\- * *|
[Q:1/4=78] G4[Q:1/4=77] G2[Q:1/4=76] (B2- |[Q:1/4=75] B2[Q:1/4=74] A[Q:1/4=74]G[Q:1/4=72] F4) | %37
w: ce, in pa\-||
[Q:1/4=69] !fermata!E8 |] %38
w: ce.|
V:2
 z4 B4 | B4 B4 | c6 B2 | B4 z2 F2 | B4 B4 | c6 c2 | d4 z2 d2 | e2 c4 B2 |[M:2/2] A4 G2 G2 | %9
w: Ju-|sto- rum|a- ni-|mae in|ma- nu|De- i|sunt, et|non tan- get|il- los, et|
 c4 e3 _d | c4 B2 B2 | A2 G2 F4 | F4 z4 | z4 z2 e2 | e2 d2 c4 | c4 z4 | z2 c4 F2 | c2 c4 d2 | %18
w: non tan- get|il- los tor-|men- tum mor-|tis:|tor-|men- tum mor-|tis:|vi- si|sunt o- cu-|
 e2 c2 _dcBA | G2 B4 A2 | G4 F4 | z4 z2 c2 | edcB A4 | (c6 B2) | =A2 (B4 A2) | B2 d4 c2 | %26
w: lis in- si- pi- en- ti-|um mo\- *|* ri,|in-|si- pi- en- ti- um|mo\- *|ri, mo\- *|ri: il- li|
 d2 e2 d2 B2- | B2 =A2 B3 A | G4 z2 c2 | e8 | c4 z2 G2- | G2 F2 G2 A2 | G2 G2 (BAGF) | %33
w: au- tem sunt, il\-|* li au- tem|sunt in|pa-|ce, il\-|* li au- tem|sunt in pa\- * * *|
 E2"^i" c2 (ed cB/A/) | G4 z2 G2 | (BA GF/E/) D4 | z2 E2 B4 | !fermata!B8 |] %38
w: ce, in pa\- * * * *|ce, in|pa\- * * * * ce,|in pa-|ce.|
V:3
 E4 D4- | D4 E4 | E6 E2 | D4 D2 D2- | D2 E2 (G4 | C2 DE F2 F2) | F4 F2 F2 | A6 E2 | %8
w: Ju- sto\-|* rum|a- ni-|mae in ma\-|* nu De\-||sunt, et non|tan- get|
[M:2/2] E4 E2 E2 | E2 A3 (A, B,2) | C2 A,2 z2 E2 | E2 E2 _D4 | C2 A2 A2 A2 | G4 G2 AG- | %14
w: il- los, et|non tan- get *|il- los tor-|men- tum mor-|tis, tor- men- tum|mor- tis, tor- men\-|
 GF (F4 =E2) | F4 A4- | A2 G2 F2 C2- | C2 G,2 C2 z2 | z2 E2 F4 | E2 D3 B, C2 | z2 C2 C3 D | %21
w: * tum mor\- *|tis: vi\-|* si sunt o\-|* cu- lis|in- si-|pi- en- ti- um|in- si- pi-|
 EF G4 (F2- | F2 =E2) F2 (F2- | F2 ED CDED | C2 B,2 C F2 E) | D4 z4 | z8 | z8 | z2 B4 =A2 | %29
w: en- ti- um mo\-|* * ri, mo\-|||ri:|||il- li|
 B2 c2 B2 G2 | (AGFE) D2 E2- | EB, (D/E/ F2) (E/D/) C2 | z4 E2 (BA | GF) E2 z2 C2 | %34
w: au- tem sunt in|pa\- * * * ce, il\-|* li au\- * * tem * sunt|in pa\- *|* * ce, in|
 (ED CB,/A,/) G,4 | z2 D4 (G2- | GF E4 D2) | !fermata!E8 |] %38
w: pa\- * * * * ce,|in pa\-||ce.|
V:4
 B4 B4- | B4 B4 | A6 B2 | B2 F2 B4 | B4 e3 d | f2 F4 c2 | B4 B4 | A2 A4 G2 | %8
w: Ju- sto\-|* rum|a- ni-|mae in ma-|nu De- i|sunt, De- i|sunt, et|non tan- get|
[M:2/2][K:treble-8] A4 E4 | z2 e2 c2 e2 | e4 e2 E2 | A2 E2 B4 | F2 f2 e2 f2 | d4 =e2 c2 | %14
w: il- los,|tor- men- tum|mor- tis tor-|men- tum mor-|tis, tor- men- tum|mor- tis, tor-|
 B2 B2 G4 | =A4 c4 | F2 c4 (f2- | f2 ed e2) d2 | c4 B4 | B3 c de f2 | (g>f =e2) f4 | c8- | %22
w: men- tum mor-|tis: vi-|si sunt o\-|* * * * cu-|lis in-|si- pi- en- ti- um|mo\- * * ri,|mo\-|
 c4 F2 A2 | ABcd e2 (e2- | e2 d2 c4) | B4 z2 f2- | f2 e2 f2 g2 | f4 z4 | z2 g4 f2 | g2 a2 g2 e2 | %30
w: * ri, in-|si- pi- en- ti- um mo\-||ri: il\-|* li au- tem|sunt,|il- li|au- tem sunt in|
 f4 B2 z2 | z2 B4 A2 | B2 c2 B2 d2 | e8 | E8 | z2 G2 (BA GF/E/ | D2 E2 F4) | !fermata!G8 |] %38
w: pa- ce,|il- li|au- tem sunt in|pa-|ce,|in pa\- * * * *||ce.|
V:5
 E,4 B,,4- | B,,4 E,4 | A,,6 E,2 | B,,8 | B,,2 E,4 G,2 | F,4 F,4 | B,,8 | z8 |[M:2/2] z4 B,4 | %9
w: Ju- sto\-|* rum|a- ni-|mae|in ma- nu|De- i|sunt,||et|
 A,2 A,4 G,2 | A,4 E,4 | z8 | z2 F,2 A,2 F,2 | G,4 C,2 C,2 | E,2 B,,2 C,4 | F,4 F,4- | %16
w: non tan- get|il- los||tor- men- tum|mor- tis, tor-|men- tum mor-|tis: vi\-|
 F,2 =E,2 F,4 | C,6 =B,,2 | C,4 z2 D,2 | E,F,G,A, B,2 (F,2 | C4 F,4 | z8 | z2 C,2 _D,E,F,G, | %23
w: * si sunt|o- cu-|lis in-|si- pi- en- ti- um mo-|* ri,||in- si- pi- en- ti-|
 A,4 (E,4 | F,8) | B,,2 B,4 F,2 | B,2 C2 B,4 | z2 F,2 B,A,G,F,) | E,4 F,4 | (E,D,C,D,) E,4 | %30
w: um mo\-||ri: il- li|au- tem sunt|in pa\- * * *|ce, in|pa\- * * * ce,|
 z4 z2 E,2- | E,2 D,2 E,2 F,2 | E,6 B,,2 | (E,D,C,B,,) A,,4 | z2 C,2 (E,D, C,B,,/A,,/) | %35
w: il\-|* li au- tem|sunt in|pa\- * * * ce,|in pa\- * * * *|
 G,,4 G,,4 | B,,8 | !fermata!E,8 |] %38
w: ce, in|pa-|ce.|

